images/Facebook.svg

<svg width="31" height="31" viewBox="0 0 31 31" fill="none" xmlns="http://www.w3.org/2000/svg">
<path d="M29.1911 0.0844727C29.6711 0.0844727 30.08 0.26225 30.4178 0.58225C30.7556 0.937806 30.9156 1.32892 30.9156 1.8267V29.2756C30.9156 29.7556 30.7378 30.1645 30.4178 30.5023C30.2559 30.6666 30.0618 30.7957 29.8477 30.8814C29.6335 30.967 29.4039 31.0074 29.1733 31H21.3689V19.0889H25.3689L25.92 14.3778H21.3689V11.3556C21.3689 10.6445 21.5467 10.0756 21.8667 9.70225C22.1867 9.3467 22.7556 9.13336 23.6445 9.13336H26.08V4.95558C25.0133 4.84892 23.8222 4.77781 22.5067 4.77781C20.7111 4.77781 19.2533 5.31114 18.1511 6.37781C17.0489 7.44447 16.4978 8.93781 16.4978 10.8756V14.3778H12.5156V19.0889H16.4978V31H1.74223C1.24445 31 0.853341 30.8223 0.497786 30.5023C0.333419 30.3404 0.204338 30.1463 0.118669 29.9321C0.033 29.7179 -0.00740155 29.4884 7.89715e-06 29.2578V1.8267C7.89715e-06 1.3467 0.177786 0.937806 0.497786 0.600028C0.659627 0.435661 0.853744 0.30658 1.06792 0.220911C1.28209 0.135242 1.51168 0.094841 1.74223 0.10225H29.1911V0.0844727Z" fill="black"/>
</svg>

<svg xmlns="http://www.w3.org/2000/svg" width="31" height="31" fill="none"><path fill="#000" d="M29.191.084c.48 0 .889.178 1.227.498.338.356.498.747.498 1.245v27.449c0 .48-.178.889-.498 1.226a1.674 1.674 0 0 1-1.245.498H21.37V19.089h4l.551-4.711h-4.551v-3.022c0-.711.178-1.28.498-1.654.32-.355.889-.569 1.777-.569h2.436V4.956a35.817 35.817 0 0 0-3.573-.178c-1.796 0-3.254.533-4.356 1.6-1.102 1.066-1.653 2.56-1.653 4.498v3.502h-3.982v4.71h3.982V31H1.742c-.498 0-.889-.178-1.244-.498A1.672 1.672 0 0 1 0 29.258V1.827C0 1.347.178.937.498.6A1.671 1.671 0 0 1 1.742.102h27.45V.084Z"/></svg>
